src/objects/office/1F4CD.svg

<svg id="emoji" viewBox="0 0 72 72" xmlns="http://www.w3.org/2000/svg">
  <g id="grid">
    <path fill="#b3b3b3" d="M68,4V68H4V4H68m4-4H0V72H72V0Z"/>
    <path fill="none" stroke="#00a5ff" stroke-miterlimit="10" stroke-width="0.1" d="M12.923,10.9583H59.0769A1.9231,1.9231,0,0,1,61,12.8814V59.0352a1.9231,1.9231,0,0,1-1.9231,1.9231H12.9231A1.9231,1.9231,0,0,1,11,59.0352V12.8813A1.923,1.923,0,0,1,12.923,10.9583Z"/>
    <rect x="16" y="4" rx="2.2537" width="40" height="64" fill="none" stroke="#00a5ff" stroke-miterlimit="10" stroke-width="0.1"/>
    <rect x="16" y="4" rx="2.2537" width="40" height="64" transform="translate(72) rotate(90)" fill="none" stroke="#00a5ff" stroke-miterlimit="10" stroke-width="0.1"/>
    <circle cx="36" cy="36" r="29" fill="none" stroke="#00a5ff" stroke-miterlimit="10" stroke-width="0.1"/>
  </g>
  <g id="color">
    <path fill="none" stroke="none" d="M36.5,36.3787"/>
    <path fill="#EA5A47" stroke="none" d="M35.9717,9.7197c-6.4217,0-11.6459,5.2242-11.6459,11.6459S29.55,33.0115,35.9717,33.0115 c6.4216,0,11.6459-5.2242,11.6459-11.6459S42.3933,9.7197,35.9717,9.7197z"/>
    <path fill="#D22F27" stroke="none" d="M39.1689,32.3818c1.7258-0.6456,3.289-0.8166,4.8143-2.212c2.1013-1.9223,3.9035-5.3398,3.9035-8.0238 c0-2.4449-0.578-5.3031-2.3421-7.6335c-1.6276-2.15-4.3608-3.8416-6.3757-4.554c0,0,3.5175,5.6512,3.5175,11.3739 S39.1689,32.3818,39.1689,32.3818z"/>
    <path fill="#D0CFCE" stroke="none" d="M35.837,63.4888l2.8467-7.6704c0,0-0.8248-19.5768-0.3788-19.6775h-5.1693 c0.4459,0.1007-0.2244,19.5589-0.2244,19.5589L35.837,63.4888z"/>
    <path fill="#9B9B9A" stroke="none" d="M35.9556,62.7376l2.649-7.0773c0,0,0.1045-19.0577,0.0622-19.5266l-2.9331,0.0072L35.9556,62.7376z"/>
  </g>
  <g id="hair"/>
  <g id="skin"/>
  <g id="skin-shadow"/>
  <g id="line">
    <circle cx="35.9715" cy="21.3656" r="11.8084" fill="none" stroke="#000000" stroke-linecap="round" stroke-linejoin="round" stroke-miterlimit="10" stroke-width="2"/>
    <polyline fill="none" stroke="#000000" stroke-linecap="round" stroke-linejoin="round" stroke-miterlimit="10" stroke-width="2" points="38.5196,37.0981 38.5196,55.7135 35.9356,64.2191 32.9209,55.7135 32.9209,37.0981"/>
  </g>
</svg>

<svg viewBox="0 0 72 72" xmlns="http://www.w3.org/2000/svg"><path fill="#b3b3b3" d="M68 4v64H4V4h64m4-4H0v72h72V0z"/><path fill="none" stroke="#00a5ff" stroke-miterlimit="10" stroke-width=".1" d="M12.923 10.958h46.154A1.923 1.923 0 0161 12.881v46.154a1.923 1.923 0 01-1.923 1.923H12.923A1.923 1.923 0 0111 59.035V12.881a1.923 1.923 0 011.923-1.923z"/><rect x="16" y="4" rx="2.254" width="40" height="64" fill="none" stroke="#00a5ff" stroke-miterlimit="10" stroke-width=".1"/><rect x="16" y="4" rx="2.254" width="40" height="64" transform="rotate(90 36 36)" fill="none" stroke="#00a5ff" stroke-miterlimit="10" stroke-width=".1"/><circle cx="36" cy="36" r="29" fill="none" stroke="#00a5ff" stroke-miterlimit="10" stroke-width=".1"/><g stroke-linecap="round" stroke-miterlimit="10" stroke-width="6" stroke="#fff" fill="none" stroke-linejoin="round"><circle cx="35.971" cy="21.366" r="11.808"/><path d="M38.52 37.098v18.616l-2.584 8.505-3.015-8.505V37.098"/></g><path fill="#EA5A47" d="M35.972 9.72c-6.422 0-11.646 5.224-11.646 11.646S29.55 33.01 35.972 33.01c6.421 0 11.646-5.224 11.646-11.645S42.393 9.72 35.972 9.72z"/><path fill="#D22F27" d="M39.169 32.382c1.726-.646 3.289-.817 4.814-2.212 2.102-1.923 3.904-5.34 3.904-8.024 0-2.445-.578-5.303-2.342-7.633-1.628-2.15-4.361-3.842-6.376-4.554 0 0 3.517 5.65 3.517 11.373s-3.517 11.05-3.517 11.05z"/><path fill="#D0CFCE" d="M35.837 63.489l2.847-7.67s-.825-19.577-.38-19.678h-5.168c.446.1-.225 19.559-.225 19.559l2.926 7.789z"/><path fill="#9B9B9A" d="M35.956 62.738l2.649-7.078s.104-19.057.062-19.526l-2.933.007.222 26.597z"/><g fill="none" stroke="#000" stroke-linecap="round" stroke-linejoin="round" stroke-miterlimit="10" stroke-width="2"><circle cx="35.971" cy="21.366" r="11.808"/><path d="M38.52 37.098v18.616l-2.584 8.505-3.015-8.505V37.098"/></g></svg>
